X:1
T:Whiskey and Beer
R:slip jig
B:Ryan's Mammoth Collection
N: 87 453
Z: Contributed by Ray Davies,  ray:davies99.freeserve.co.uk
M:9/8
L:1/8
K:D
vABA A2G F2G | ABA A2B cBA | ABA A2G F2G | A2d d2c d3 |
 ABA A2G F2G | ABA A2B cBA | ABA A2G F2G | A2d d2c d3 |]
A2g f2d e2c | ABA A2B c2A | A2g f2d c2A | A2d d2c d3 |
A2g f2d e2c | ABA A2B c2A | d2A A2G F2G | A2d d2c d3 |]
